images/logo.svg

<svg width="193" height="25" viewBox="0 0 193 25" fill="none" xmlns="http://www.w3.org/2000/svg">
  <path fill-rule="evenodd" clip-rule="evenodd" d="M11.0318 1.20077C11.0318 0.556347 11.5542 0.0339355 12.1986 0.0339355H17.1644C17.8088 0.0339355 18.3312 0.556347 18.3312 1.20077V2.86392C18.3312 3.50834 18.8536 4.03076 19.498 4.03076H24.1703C24.8147 4.03076 25.3371 4.55317 25.3371 5.19759V9.36847C25.3371 10.0129 24.8147 10.5353 24.1703 10.5353H22.5071C21.8626 10.5353 21.3402 11.0577 21.3402 11.7021V16.6679C21.3402 17.3124 21.8626 17.8348 22.5071 17.8348H24.1703C24.8147 17.8348 25.3371 18.3572 25.3371 19.0016V23.1725C25.3371 23.8169 24.8147 24.3393 24.1703 24.3393H5.1927C4.54828 24.3393 4.02587 23.8169 4.02587 23.1725V19.0016C4.02587 18.3572 3.50345 17.8347 2.85903 17.8347H1.19589C0.551464 17.8347 0.0290527 17.3123 0.0290527 16.6679V11.7021C0.0290527 11.0577 0.551465 10.5353 1.19589 10.5353H2.85903C3.50346 10.5353 4.02587 10.0129 4.02587 9.36846V5.19759C4.02587 4.55317 4.54828 4.03076 5.19271 4.03076H9.86492C10.5093 4.03076 11.0318 3.50834 11.0318 2.86392V1.20077Z" fill="#7E858B" style="fill:#7E858B;fill:color(display-p3 0.4941 0.5216 0.5451);fill-opacity:1;"/>
  <path d="M11.8116 7.58334V7.48334H11.7116C10.7079 7.48334 9.90747 7.75213 9.32322 8.3012L9.3917 8.37407L9.32328 8.30114C8.73464 8.85342 8.45029 9.70344 8.45029 10.8289V16.7155C8.45029 17.8402 8.73466 18.6901 9.32322 19.2432C9.90747 19.7923 10.7079 20.0611 11.7116 20.0611H11.8116V19.9611V18.9649V18.8672L11.7139 18.865C11.0536 18.8499 10.5759 18.6559 10.2661 18.2963C9.95405 17.934 9.78819 17.384 9.78819 16.6212V10.9259C9.78819 10.1627 9.95284 9.6104 10.266 9.2483C10.5772 8.8885 11.0538 8.69452 11.714 8.67818L11.8116 8.67576V8.57821V7.58334Z" fill="#13171A" stroke="#13171A" style="fill:#13171A;fill:color(display-p3 0.0745 0.0902 0.1020);fill-opacity:1;stroke:#13171A;stroke:color(display-p3 0.0745 0.0902 0.1020);stroke-opacity:1;" stroke-width="0.2"/>
  <path d="M15.5016 7.58333V7.48333H15.4016C14.398 7.48333 13.5976 7.75211 13.0133 8.30114C12.4238 8.85342 12.139 9.70344 12.139 10.8289L12.139 16.7155L12.139 16.7156C12.1399 17.8402 12.4247 18.6902 13.0133 19.2432C13.5975 19.7923 14.3979 20.0611 15.4016 20.0611H15.5016V19.9611V18.9649V18.8672L15.4039 18.865C14.7438 18.8499 14.2672 18.6559 13.9561 18.2961C13.6429 17.934 13.4783 17.3842 13.4783 16.6212V10.9258C13.4783 10.1612 13.6329 9.61007 13.9502 9.24888C14.2666 8.88873 14.7436 8.69956 15.4049 8.67815L15.5016 8.67502V8.5782V7.58333Z" fill="#13171A" stroke="#13171A" style="fill:#13171A;fill:color(display-p3 0.0745 0.0902 0.1020);fill-opacity:1;stroke:#13171A;stroke:color(display-p3 0.0745 0.0902 0.1020);stroke-opacity:1;" stroke-width="0.2"/>
  <path d="M19.1905 7.58333V7.48333H19.0905C18.0877 7.48333 17.2877 7.75212 16.7035 8.30114C16.114 8.85342 15.8292 9.70344 15.8292 10.8289V16.7155C15.8292 17.8402 16.114 18.6902 16.7035 19.2433C17.2886 19.7923 18.0885 20.0611 19.0905 20.0611H19.1905V19.9611V18.9649V18.8672L19.0928 18.865C18.4341 18.8499 17.9574 18.6559 17.6462 18.2961C17.333 17.934 17.1684 17.3842 17.1684 16.6212V10.9258C17.1684 10.1627 17.3331 9.61039 17.6462 9.24829C17.9574 8.88847 18.4341 8.69451 19.093 8.67817L19.1905 8.67575V8.5782V7.58333Z" fill="#13171A" stroke="#13171A" style="fill:#13171A;fill:color(display-p3 0.0745 0.0902 0.1020);fill-opacity:1;stroke:#13171A;stroke:color(display-p3 0.0745 0.0902 0.1020);stroke-opacity:1;" stroke-width="0.2"/>
  <path d="M190.76 18.7432V17.0898C190.457 17.6823 190.037 18.1439 189.499 18.4745C188.962 18.8052 188.349 18.9706 187.66 18.9706C186.764 18.9706 185.951 18.7363 185.221 18.2679C184.505 17.7856 183.94 17.1518 183.526 16.3665C183.113 15.5811 182.906 14.7475 182.906 13.8657C182.906 12.9426 183.113 12.0952 183.526 11.3236C183.94 10.5382 184.511 9.91822 185.242 9.46354C185.972 9.00886 186.778 8.78152 187.66 8.78152C188.349 8.78152 188.962 8.94685 189.499 9.27753C190.037 9.60821 190.457 10.0698 190.76 10.6622V4.06934H192.455V18.7432H190.76ZM187.701 17.3172C188.679 17.3172 189.43 17.0071 189.954 16.3871C190.491 15.7533 190.76 14.9266 190.76 13.907C190.76 12.8737 190.491 12.0401 189.954 11.4063C189.43 10.7587 188.679 10.4349 187.701 10.4349C186.75 10.4349 185.993 10.7587 185.428 11.4063C184.877 12.0401 184.601 12.853 184.601 13.845C184.601 14.8371 184.877 15.6638 185.428 16.3251C185.979 16.9865 186.737 17.3172 187.701 17.3172Z" fill="#F7F8F9" style="fill:#F7F8F9;fill:color(display-p3 0.9686 0.9725 0.9765);fill-opacity:1;"/>
  <path d="M172.703 9.02953H174.418V10.6829C174.597 10.242 174.935 9.81489 175.431 9.40154C175.941 8.98819 176.657 8.78152 177.58 8.78152C178.683 8.78152 179.53 9.1742 180.122 9.95956C180.729 10.7311 181.032 11.737 181.032 12.977V18.7432H179.316V13.3904C179.316 12.5361 179.124 11.8334 178.738 11.2823C178.366 10.7174 177.801 10.4349 177.043 10.4349C176.203 10.4349 175.555 10.738 175.1 11.3443C174.646 11.9367 174.418 12.7359 174.418 13.7417V18.7432H172.703V9.02953Z" fill="#F7F8F9" style="fill:#F7F8F9;fill:color(display-p3 0.9686 0.9725 0.9765);fill-opacity:1;"/>
  <path d="M170.435 18.7432H168.741V17.0898C168.561 17.517 168.217 17.9372 167.707 18.3505C167.211 18.7639 166.502 18.9706 165.578 18.9706C164.476 18.9706 163.622 18.5848 163.016 17.8132C162.423 17.0278 162.127 16.0151 162.127 14.7751V9.02953H163.842V14.3617C163.842 15.216 164.028 15.9256 164.4 16.4905C164.786 17.0416 165.358 17.3172 166.116 17.3172C166.956 17.3172 167.604 17.0209 168.059 16.4285C168.513 15.8222 168.741 15.0162 168.741 14.0104V9.02953H170.435V18.7432Z" fill="#F7F8F9" style="fill:#F7F8F9;fill:color(display-p3 0.9686 0.9725 0.9765);fill-opacity:1;"/>
  <path d="M155.49 18.9706C154.566 18.9706 153.74 18.7363 153.009 18.2679C152.279 17.7994 151.707 17.1794 151.294 16.4078C150.881 15.6224 150.674 14.7888 150.674 13.907C150.674 12.9701 150.874 12.1159 151.273 11.3443C151.687 10.5589 152.259 9.93889 152.989 9.48421C153.733 9.01575 154.566 8.78152 155.49 8.78152C156.399 8.78152 157.212 9.00886 157.928 9.46354C158.659 9.91822 159.223 10.5382 159.623 11.3236C160.036 12.0952 160.243 12.9426 160.243 13.8657C160.243 14.7475 160.036 15.5811 159.623 16.3665C159.223 17.1518 158.659 17.7856 157.928 18.2679C157.212 18.7363 156.399 18.9706 155.49 18.9706ZM155.49 17.3172C156.44 17.3172 157.184 16.9865 157.722 16.3251C158.259 15.6638 158.528 14.8371 158.528 13.845C158.528 12.8392 158.259 12.0194 157.722 11.3856C157.184 10.7518 156.44 10.4349 155.49 10.4349C154.511 10.4349 153.747 10.7587 153.195 11.4063C152.658 12.0539 152.389 12.8874 152.389 13.907C152.389 14.8853 152.665 15.6982 153.216 16.3458C153.767 16.9934 154.525 17.3172 155.49 17.3172Z" fill="#F7F8F9" style="fill:#F7F8F9;fill:color(display-p3 0.9686 0.9725 0.9765);fill-opacity:1;"/>
  <path d="M144.346 18.7432V9.02952H146.061V10.7656C146.378 10.1456 146.778 9.6771 147.26 9.3602C147.742 9.0433 148.376 8.88485 149.161 8.88485C149.423 8.88485 149.678 8.92618 149.926 9.00885V10.7036C149.65 10.6347 149.375 10.6002 149.099 10.6002C147.074 10.6002 146.061 11.8747 146.061 14.4237V18.7432H144.346Z" fill="#F7F8F9" style="fill:#F7F8F9;fill:color(display-p3 0.9686 0.9725 0.9765);fill-opacity:1;"/>
  <path d="M132.509 13.8657C132.509 12.9426 132.716 12.0952 133.129 11.3236C133.543 10.5382 134.114 9.91822 134.845 9.46354C135.575 9.00886 136.381 8.78152 137.263 8.78152C137.952 8.78152 138.565 8.94686 139.102 9.27753C139.64 9.60821 140.06 10.0698 140.363 10.6623V9.02953H142.078V19.1979C142.078 22.2016 140.473 23.7034 137.263 23.7034C135.816 23.7034 134.707 23.3383 133.935 22.608C133.164 21.8778 132.75 20.9615 132.695 19.8593H134.431C134.486 20.5482 134.748 21.1062 135.217 21.5333C135.685 21.9604 136.367 22.174 137.263 22.174C139.33 22.174 140.363 21.182 140.363 19.1979V17.0898C140.06 17.6823 139.64 18.1439 139.102 18.4745C138.565 18.8052 137.952 18.9706 137.263 18.9706C136.367 18.9706 135.554 18.7363 134.824 18.2679C134.108 17.7856 133.543 17.1518 133.129 16.3665C132.716 15.5811 132.509 14.7475 132.509 13.8657ZM134.225 13.845C134.225 14.8371 134.5 15.6638 135.051 16.3251C135.602 16.9865 136.36 17.3172 137.325 17.3172C138.303 17.3172 139.054 17.0071 139.578 16.3871C140.101 15.7533 140.363 14.9266 140.363 13.907C140.363 12.8737 140.094 12.0401 139.557 11.4063C139.033 10.7587 138.289 10.4349 137.325 10.4349C136.374 10.4349 135.616 10.7587 135.051 11.4063C134.5 12.0401 134.225 12.853 134.225 13.845Z" fill="#F7F8F9" style="fill:#F7F8F9;fill:color(display-p3 0.9686 0.9725 0.9765);fill-opacity:1;"/>
  <path d="M122.222 9.00886H123.978L126.913 16.6145L129.848 9.00886H131.625L125.88 23.7034H124.144L126.045 18.7432L122.222 9.00886Z" fill="#F7F8F9" style="fill:#F7F8F9;fill:color(display-p3 0.9686 0.9725 0.9765);fill-opacity:1;"/>
  <path d="M119.272 18.7432V17.0898C118.969 17.6823 118.548 18.1439 118.011 18.4745C117.474 18.8052 116.861 18.9706 116.172 18.9706C115.276 18.9706 114.463 18.7363 113.733 18.2679C113.016 17.7856 112.452 17.1518 112.038 16.3665C111.625 15.5811 111.418 14.7475 111.418 13.8657C111.418 12.9426 111.625 12.0952 112.038 11.3236C112.452 10.5382 113.023 9.91822 113.754 9.46354C114.484 9.00886 115.29 8.78152 116.172 8.78152C116.861 8.78152 117.474 8.94686 118.011 9.27753C118.548 9.60821 118.969 10.0698 119.272 10.6623V9.02953H120.967V18.7432H119.272ZM116.213 17.3172C117.191 17.3172 117.942 17.0071 118.466 16.3871C119.003 15.7533 119.272 14.9266 119.272 13.907C119.272 12.8737 119.003 12.0401 118.466 11.4063C117.942 10.7587 117.191 10.4349 116.213 10.4349C115.262 10.4349 114.505 10.7587 113.94 11.4063C113.389 12.0401 113.113 12.853 113.113 13.845C113.113 14.8371 113.389 15.6638 113.94 16.3251C114.491 16.9865 115.249 17.3172 116.213 17.3172Z" fill="#F7F8F9" style="fill:#F7F8F9;fill:color(display-p3 0.9686 0.9725 0.9765);fill-opacity:1;"/>
  <path d="M106.182 4.06934H107.898V15.1884C107.898 15.9462 108.008 16.4836 108.228 16.8005C108.462 17.1036 108.862 17.2552 109.427 17.2552C109.647 17.2552 109.978 17.2207 110.419 17.1518V18.7225C109.95 18.819 109.489 18.8672 109.034 18.8672C108.125 18.8672 107.422 18.6261 106.926 18.1439C106.444 17.6478 106.196 16.8487 106.182 15.7464V4.06934Z" fill="#F7F8F9" style="fill:#F7F8F9;fill:color(display-p3 0.9686 0.9725 0.9765);fill-opacity:1;"/>
  <path d="M96.3504 23.7034H94.635V9.02953H96.3504V10.6623C96.6535 10.0698 97.0738 9.60821 97.6111 9.27753C98.1485 8.94686 98.7616 8.78152 99.4505 8.78152C100.332 8.78152 101.138 9.00886 101.869 9.46354C102.599 9.91822 103.171 10.5382 103.584 11.3236C103.997 12.0952 104.204 12.9426 104.204 13.8657C104.204 14.7475 103.997 15.5811 103.584 16.3665C103.171 17.1518 102.599 17.7856 101.869 18.2679C101.152 18.7363 100.346 18.9706 99.4505 18.9706C98.7616 18.9706 98.1485 18.8052 97.6111 18.4745C97.0738 18.1439 96.6535 17.6823 96.3504 17.0898V23.7034ZM97.1358 16.3871C97.6593 17.0071 98.4103 17.3172 99.3885 17.3172C100.353 17.3172 101.111 16.9865 101.662 16.3251C102.213 15.6638 102.489 14.8371 102.489 13.845C102.489 12.853 102.206 12.0401 101.641 11.4063C101.09 10.7587 100.339 10.4349 99.3885 10.4349C98.424 10.4349 97.6731 10.7587 97.1358 11.4063C96.6122 12.0401 96.3504 12.8737 96.3504 13.907C96.3504 14.9266 96.6122 15.7533 97.1358 16.3871Z" fill="#F7F8F9" style="fill:#F7F8F9;fill:color(display-p3 0.9686 0.9725 0.9765);fill-opacity:1;"/>
  <path d="M79.4136 9.00886H81.1703L84.1051 16.6145L87.0398 9.00886H88.8173L83.0717 23.7034H81.3356L83.237 18.7432L79.4136 9.00886Z" fill="#F7F8F9" style="fill:#F7F8F9;fill:color(display-p3 0.9686 0.9725 0.9765);fill-opacity:1;"/>
  <path d="M72.5532 9.02952H72.9872C73.5246 9.02952 73.8897 8.91241 74.0826 8.67818C74.2755 8.44395 74.372 8.10638 74.372 7.66547V5.86741H75.9427V9.02952H78.3401V10.5796H75.9427V15.1884C75.9427 15.96 76.0598 16.4974 76.294 16.8005C76.5283 17.1036 76.9416 17.2552 77.5341 17.2552C77.8096 17.2552 78.1885 17.2207 78.6708 17.1518V18.7432C78.161 18.8259 77.6787 18.8672 77.2241 18.8672C76.2045 18.8672 75.4467 18.6123 74.9506 18.1025C74.4684 17.5789 74.2273 16.7385 74.2273 15.5811V10.5796H72.5532V9.02952Z" fill="#F7F8F9" style="fill:#F7F8F9;fill:color(display-p3 0.9686 0.9725 0.9765);fill-opacity:1;"/>
  <path d="M70.1383 6.6321C69.7801 6.6321 69.477 6.5081 69.2289 6.26009C68.9809 6.01208 68.8569 5.70896 68.8569 5.35072C68.8569 4.99249 68.9809 4.68937 69.2289 4.44136C69.477 4.19335 69.7801 4.06934 70.1383 4.06934C70.4966 4.06934 70.7928 4.19335 71.027 4.44136C71.275 4.68937 71.399 4.99249 71.399 5.35072C71.399 5.70896 71.275 6.01208 71.027 6.26009C70.7928 6.5081 70.4966 6.6321 70.1383 6.6321ZM69.2703 9.00886H70.9857V18.7432H69.2703V9.00886Z" fill="#F7F8F9" style="fill:#F7F8F9;fill:color(display-p3 0.9686 0.9725 0.9765);fill-opacity:1;"/>
  <path d="M62.1201 18.7432V9.02952H63.8355V10.7656C64.1524 10.1456 64.552 9.6771 65.0342 9.3602C65.5165 9.0433 66.1503 8.88485 66.9356 8.88485C67.1974 8.88485 67.4523 8.92618 67.7003 9.00885V10.7036C67.4248 10.6347 67.1492 10.6002 66.8736 10.6002C64.8482 10.6002 63.8355 11.8747 63.8355 14.4237V18.7432H62.1201Z" fill="#F7F8F9" style="fill:#F7F8F9;fill:color(display-p3 0.9686 0.9725 0.9765);fill-opacity:1;"/>
  <path d="M58.1576 18.7432V17.0898C57.8545 17.6823 57.4342 18.1439 56.8969 18.4745C56.3595 18.8052 55.7464 18.9706 55.0575 18.9706C54.1619 18.9706 53.349 18.7363 52.6187 18.2679C51.9022 17.7856 51.3373 17.1518 50.924 16.3665C50.5106 15.5811 50.304 14.7475 50.304 13.8657C50.304 12.9426 50.5106 12.0952 50.924 11.3236C51.3373 10.5382 51.9091 9.91822 52.6394 9.46354C53.3696 9.00886 54.1757 8.78152 55.0575 8.78152C55.7464 8.78152 56.3595 8.94686 56.8969 9.27753C57.4342 9.60821 57.8545 10.0698 58.1576 10.6623V9.02953H59.8523V18.7432H58.1576ZM55.0988 17.3172C56.0771 17.3172 56.828 17.0071 57.3515 16.3871C57.8889 15.7533 58.1576 14.9266 58.1576 13.907C58.1576 12.8737 57.8889 12.0401 57.3515 11.4063C56.828 10.7587 56.0771 10.4349 55.0988 10.4349C54.1481 10.4349 53.3903 10.7587 52.8254 11.4063C52.2742 12.0401 51.9987 12.853 51.9987 13.845C51.9987 14.8371 52.2742 15.6638 52.8254 16.3251C53.3765 16.9865 54.1343 17.3172 55.0988 17.3172Z" fill="#F7F8F9" style="fill:#F7F8F9;fill:color(display-p3 0.9686 0.9725 0.9765);fill-opacity:1;"/>
  <path d="M45.0679 4.06934H46.7833V15.1884C46.7833 15.9462 46.8935 16.4836 47.1139 16.8005C47.3482 17.1036 47.7477 17.2552 48.3127 17.2552C48.5331 17.2552 48.8638 17.2207 49.3047 17.1518V18.7225C48.8362 18.819 48.3747 18.8672 47.92 18.8672C47.0106 18.8672 46.3079 18.6261 45.8119 18.1439C45.3297 17.6478 45.0816 16.8487 45.0679 15.7464V4.06934Z" fill="#F7F8F9" style="fill:#F7F8F9;fill:color(display-p3 0.9686 0.9725 0.9765);fill-opacity:1;"/>
  <path d="M41.353 12.4396C41.2704 11.8196 41.0155 11.3305 40.5884 10.9723C40.1612 10.6002 39.5274 10.4142 38.6869 10.4142C38.0669 10.4142 37.5365 10.5796 37.0956 10.9103C36.6547 11.2272 36.3171 11.6543 36.0829 12.1916C35.8486 12.7152 35.7315 13.2801 35.7315 13.8864C35.7315 14.8371 35.9933 15.65 36.5169 16.3251C37.0542 17.0003 37.812 17.3378 38.7903 17.3378C39.4516 17.3378 40.0097 17.1794 40.4643 16.8625C40.919 16.5456 41.2222 16.0978 41.3737 15.5191H43.0891C42.9927 16.1667 42.7515 16.7523 42.3658 17.2758C41.98 17.7994 41.4702 18.2127 40.8364 18.5159C40.2026 18.819 39.4792 18.9706 38.6663 18.9706C37.8258 18.9706 37.0473 18.7363 36.3309 18.2679C35.6144 17.7856 35.0495 17.1518 34.6361 16.3665C34.2228 15.5811 34.0161 14.7544 34.0161 13.8864C34.0161 12.977 34.2159 12.1365 34.6155 11.3649C35.0288 10.5796 35.5868 9.95267 36.2895 9.48421C37.006 9.01575 37.7914 8.78152 38.6456 8.78152C40.051 8.78152 41.1119 9.13286 41.8284 9.83555C42.5586 10.5382 42.972 11.4063 43.0684 12.4396H41.353Z" fill="#F7F8F9" style="fill:#F7F8F9;fill:color(display-p3 0.9686 0.9725 0.9765);fill-opacity:1;"/>
</svg>

<svg width="193" height="25" fill="none" xmlns="http://www.w3.org/2000/svg"><path fill-rule="evenodd" clip-rule="evenodd" d="M11.032 1.2c0-.644.522-1.166 1.167-1.166h4.965c.645 0 1.167.522 1.167 1.167v1.663c0 .644.523 1.167 1.167 1.167h4.672c.645 0 1.167.522 1.167 1.167v4.17c0 .645-.522 1.167-1.167 1.167h-1.663c-.644 0-1.167.523-1.167 1.167v4.966c0 .644.523 1.167 1.167 1.167h1.663c.645 0 1.167.522 1.167 1.167v4.17c0 .645-.522 1.167-1.167 1.167H5.193a1.167 1.167 0 0 1-1.167-1.166v-4.171c0-.645-.523-1.167-1.167-1.167H1.196a1.167 1.167 0 0 1-1.167-1.167v-4.966c0-.644.522-1.167 1.167-1.167h1.663c.644 0 1.167-.522 1.167-1.167v-4.17c0-.645.522-1.167 1.167-1.167h4.672c.644 0 1.167-.523 1.167-1.167V1.2Z" fill="#7E858B" style="fill:color(display-p3 .4941 .5216 .5451);fill-opacity:1"/><path d="M11.812 7.583v-.1h-.1c-1.004 0-1.805.27-2.389.818l.069.073-.069-.073c-.588.552-.873 1.402-.873 2.528v5.886c0 1.125.285 1.975.873 2.528.584.55 1.385.818 2.389.818h.1V18.867l-.098-.002c-.66-.015-1.138-.21-1.448-.569-.312-.362-.478-.912-.478-1.675v-5.695c0-.763.165-1.316.478-1.678.311-.36.788-.553 1.448-.57l.098-.002V7.583ZM15.502 7.583v-.1h-.1c-1.004 0-1.804.27-2.389.818-.59.552-.874 1.402-.874 2.528v5.886c0 1.125.286 1.975.874 2.528.585.55 1.385.818 2.389.818h.1V18.867l-.098-.002c-.66-.015-1.137-.21-1.448-.569-.313-.362-.478-.912-.478-1.675v-5.695c0-.765.155-1.316.472-1.677.317-.36.794-.55 1.455-.57l.097-.004V7.583ZM19.19 7.583v-.1h-.1c-1.002 0-1.802.27-2.387.818-.589.552-.874 1.402-.874 2.528v5.886c0 1.125.285 1.975.874 2.528.586.55 1.386.818 2.387.818h.1V18.867l-.097-.002c-.659-.015-1.136-.21-1.447-.569-.313-.362-.478-.912-.478-1.675v-5.695c0-.763.165-1.316.478-1.678.311-.36.788-.553 1.447-.57l.098-.002V7.583Z" fill="#13171A" stroke="#13171A" style="fill:color(display-p3 .0745 .0902 .102);fill-opacity:1;stroke:color(display-p3 .0745 .0902 .102);stroke-opacity:1" stroke-width=".2"/><path d="M190.76 18.743V17.09a3.405 3.405 0 0 1-1.261 1.384c-.537.331-1.15.497-1.839.497a4.422 4.422 0 0 1-2.439-.703 5.144 5.144 0 0 1-1.695-1.902 5.298 5.298 0 0 1-.62-2.5c0-.923.207-1.77.62-2.542a4.754 4.754 0 0 1 1.716-1.86 4.483 4.483 0 0 1 2.418-.682c.689 0 1.302.165 1.839.496.538.33.958.792 1.261 1.384V4.07h1.695v14.674h-1.695Zm-3.059-1.426c.978 0 1.729-.31 2.253-.93.537-.634.806-1.46.806-2.48 0-1.033-.269-1.867-.806-2.5-.524-.648-1.275-.972-2.253-.972-.951 0-1.708.324-2.273.971-.551.634-.827 1.447-.827 2.439s.276 1.819.827 2.48c.551.662 1.309.992 2.273.992ZM172.703 9.03h1.715v1.653c.179-.441.517-.868 1.013-1.281.51-.414 1.226-.62 2.149-.62 1.103 0 1.95.392 2.542 1.178.607.771.91 1.777.91 3.017v5.766h-1.716V13.39c0-.854-.192-1.557-.578-2.108-.372-.565-.937-.847-1.695-.847-.84 0-1.488.303-1.943.91-.454.592-.682 1.39-.682 2.397v5.001h-1.715V9.03ZM170.435 18.743h-1.694V17.09c-.18.427-.524.847-1.034 1.26-.496.414-1.205.62-2.129.62-1.102 0-1.956-.385-2.562-1.157-.593-.785-.889-1.798-.889-3.038V9.03h1.715v5.332c0 .854.186 1.564.558 2.129.386.55.958.826 1.716.826.84 0 1.488-.296 1.943-.889.454-.606.682-1.412.682-2.418V9.03h1.694v9.713ZM155.49 18.97c-.924 0-1.75-.234-2.481-.702a4.948 4.948 0 0 1-1.715-1.86 5.298 5.298 0 0 1-.62-2.501c0-.937.2-1.791.599-2.563a4.762 4.762 0 0 1 1.716-1.86c.744-.468 1.577-.702 2.501-.702.909 0 1.722.227 2.438.682a4.604 4.604 0 0 1 1.695 1.86c.413.771.62 1.619.62 2.542 0 .882-.207 1.715-.62 2.5-.4.786-.964 1.42-1.695 1.902-.716.468-1.529.703-2.438.703Zm0-1.653c.95 0 1.694-.33 2.232-.992.537-.661.806-1.488.806-2.48 0-1.006-.269-1.826-.806-2.46-.538-.633-1.282-.95-2.232-.95-.979 0-1.743.324-2.295.971-.537.648-.806 1.481-.806 2.501 0 .978.276 1.791.827 2.439.551.647 1.309.971 2.274.971ZM144.346 18.743V9.03h1.715v1.736c.317-.62.717-1.089 1.199-1.406.482-.317 1.116-.475 1.901-.475.262 0 .517.041.765.124v1.695a3.4 3.4 0 0 0-.827-.104c-2.025 0-3.038 1.275-3.038 3.824v4.32h-1.715ZM132.509 13.866c0-.923.207-1.77.62-2.542a4.754 4.754 0 0 1 1.716-1.86 4.483 4.483 0 0 1 2.418-.682c.689 0 1.302.165 1.839.496.538.33.958.792 1.261 1.384V9.03h1.715v10.168c0 3.004-1.605 4.505-4.815 4.505-1.447 0-2.556-.365-3.328-1.095-.771-.73-1.185-1.646-1.24-2.749h1.736c.055.69.317 1.247.786 1.674.468.427 1.15.641 2.046.641 2.067 0 3.1-.992 3.1-2.976V17.09a3.405 3.405 0 0 1-1.261 1.384c-.537.331-1.15.497-1.839.497a4.422 4.422 0 0 1-2.439-.703 5.144 5.144 0 0 1-1.695-1.902 5.298 5.298 0 0 1-.62-2.5Zm1.716-.021c0 .992.275 1.819.826 2.48.551.662 1.309.992 2.274.992.978 0 1.729-.31 2.253-.93.523-.634.785-1.46.785-2.48 0-1.033-.269-1.867-.806-2.5-.524-.648-1.268-.972-2.232-.972-.951 0-1.709.324-2.274.971-.551.634-.826 1.447-.826 2.439ZM122.222 9.009h1.756l2.935 7.605 2.935-7.605h1.777l-5.745 14.694h-1.736l1.901-4.96-3.823-9.734ZM119.272 18.743V17.09a3.412 3.412 0 0 1-1.261 1.384c-.537.331-1.15.497-1.839.497a4.422 4.422 0 0 1-2.439-.703 5.136 5.136 0 0 1-1.695-1.902 5.298 5.298 0 0 1-.62-2.5c0-.923.207-1.77.62-2.542a4.754 4.754 0 0 1 1.716-1.86 4.483 4.483 0 0 1 2.418-.682c.689 0 1.302.165 1.839.496.537.33.958.792 1.261 1.384V9.03h1.695v9.713h-1.695Zm-3.059-1.426c.978 0 1.729-.31 2.253-.93.537-.634.806-1.46.806-2.48 0-1.033-.269-1.867-.806-2.5-.524-.648-1.275-.972-2.253-.972-.951 0-1.708.324-2.273.971-.551.634-.827 1.447-.827 2.439s.276 1.819.827 2.48c.551.662 1.309.992 2.273.992ZM106.182 4.07h1.716v11.118c0 .758.11 1.296.33 1.612.234.304.634.455 1.199.455.22 0 .551-.034.992-.103v1.57c-.469.097-.93.145-1.385.145-.909 0-1.612-.24-2.108-.723-.482-.496-.73-1.295-.744-2.398V4.07ZM96.35 23.703h-1.715V9.03h1.715v1.632a3.41 3.41 0 0 1 1.261-1.384c.537-.331 1.15-.496 1.84-.496.881 0 1.687.227 2.418.682a4.752 4.752 0 0 1 1.715 1.86c.413.771.62 1.619.62 2.542 0 .882-.207 1.715-.62 2.5a5.068 5.068 0 0 1-1.715 1.902 4.325 4.325 0 0 1-2.418.703c-.69 0-1.302-.166-1.84-.497a3.41 3.41 0 0 1-1.26-1.384v6.613Zm.786-7.316c.523.62 1.274.93 2.252.93.965 0 1.723-.33 2.274-.992.551-.661.827-1.488.827-2.48s-.283-1.805-.848-2.439c-.551-.647-1.302-.971-2.253-.971-.964 0-1.715.324-2.252.971-.524.634-.786 1.468-.786 2.501 0 1.02.262 1.846.786 2.48ZM79.414 9.009h1.756l2.935 7.605L87.04 9.01h1.777l-5.745 14.694h-1.736l1.901-4.96-3.823-9.734ZM72.553 9.03h.434c.538 0 .903-.118 1.096-.352.192-.234.289-.572.289-1.013V5.867h1.57V9.03h2.398v1.55h-2.397v4.608c0 .772.117 1.31.351 1.612.234.304.648.455 1.24.455.276 0 .654-.034 1.137-.103v1.591c-.51.083-.992.124-1.447.124-1.02 0-1.777-.255-2.273-.765-.483-.523-.724-1.364-.724-2.52V10.58h-1.674V9.03ZM70.138 6.632c-.358 0-.661-.124-.91-.372a1.237 1.237 0 0 1-.371-.91c0-.358.124-.66.372-.909.248-.248.551-.372.91-.372.358 0 .654.124.888.372.248.248.372.551.372.91 0 .358-.124.661-.372.91a1.17 1.17 0 0 1-.889.371ZM69.27 9.01h1.716v9.734H69.27V9.01ZM62.12 18.743V9.03h1.716v1.736c.316-.62.716-1.089 1.198-1.406.482-.317 1.116-.475 1.902-.475.261 0 .516.041.764.124v1.695a3.396 3.396 0 0 0-.826-.104c-2.026 0-3.038 1.275-3.038 3.824v4.32H62.12ZM58.158 18.743V17.09a3.41 3.41 0 0 1-1.261 1.384c-.538.331-1.15.497-1.84.497a4.423 4.423 0 0 1-2.438-.703 5.133 5.133 0 0 1-1.695-1.902 5.293 5.293 0 0 1-.62-2.5c0-.923.207-1.77.62-2.542a4.753 4.753 0 0 1 1.715-1.86 4.485 4.485 0 0 1 2.418-.682c.69 0 1.302.165 1.84.496.537.33.958.792 1.26 1.384V9.03h1.695v9.713h-1.694Zm-3.06-1.426c.98 0 1.73-.31 2.254-.93.537-.634.806-1.46.806-2.48 0-1.033-.27-1.867-.806-2.5-.524-.648-1.275-.972-2.253-.972-.95 0-1.709.324-2.274.971-.55.634-.826 1.447-.826 2.439s.275 1.819.826 2.48c.551.662 1.31.992 2.274.992ZM45.068 4.07h1.715v11.118c0 .758.11 1.296.33 1.612.235.304.635.455 1.2.455.22 0 .55-.034.992-.103v1.57a6.85 6.85 0 0 1-1.385.145c-.91 0-1.612-.24-2.108-.723-.482-.496-.73-1.295-.744-2.398V4.07ZM41.353 12.44c-.083-.62-.337-1.11-.765-1.468-.427-.372-1.06-.558-1.901-.558-.62 0-1.15.166-1.591.496a3.03 3.03 0 0 0-1.013 1.282 4.101 4.101 0 0 0-.352 1.694c0 .951.262 1.764.786 2.44.537.674 1.295 1.012 2.273 1.012.662 0 1.22-.159 1.674-.476.455-.316.758-.764.91-1.343h1.715a3.881 3.881 0 0 1-.723 1.757 4.007 4.007 0 0 1-1.53 1.24c-.633.303-1.357.455-2.17.455-.84 0-1.619-.235-2.335-.703a5.134 5.134 0 0 1-1.695-1.902 5.253 5.253 0 0 1-.62-2.48c0-.909.2-1.75.6-2.521a5.03 5.03 0 0 1 1.673-1.88 4.218 4.218 0 0 1 2.357-.703c1.405 0 2.466.35 3.182 1.054.73.702 1.144 1.57 1.24 2.604h-1.715Z" fill="#F7F8F9" style="fill:color(display-p3 .9686 .9725 .9765);fill-opacity:1"/></svg>
